X: 118
T: Vintons Hornpipe
Z: Bob Puckette <bpuckette:msn.com> 2003-3-10
S: Ralph Page's Northern Junket magazine, v.13 #7, Feb. 1980, p.30-31
F: http://http://www.izaak.unh.edu/dlp/NorthernJunket/pages/NJv13/NJv13-07/NJv.13.07.p30.htm
N: Chords added by John Chambers
B: NEFR #118
B: Cole's 1000 Fiddle Tunes
R: hornpipe
M: C|
L: 1/8
K: Bb
fe \
| "Bb"d2 B2 Bc dB | "F7"cB AG F2 FE | "Bb"DF BF dB ed | "F7"cB AG F2 fe |
| "Bb"d2 B2 B2 gf | "Cm"e2 c2 c2 cB | "F"Ac fa "C7"gb g=e | "F"f2 f2 f2 :|
|: fe \
| "Bb"dB AB dB AB | "Eb"GE DE GE DE | "Cm"cd ec "Gm"Bc dB | "F7"AB cA F2 fg |
| "Bb"fB AB "Eb"gB AB | "F"aB AB "Gm"bB AB | "F7"FG AB cd cA | "Bb"B2 B2 B2 :|
